icons/shirt.svg

<?xml version="1.0" encoding="utf-8"?>
<svg xmlns="http://www.w3.org/2000/svg" viewBox="0 0 16 16" fill="#ffffff"><path d="M 6.5 2 A 0.50005 0.50005 0 0 0 6.3242188 2.03125 L 2.3242188 3.53125 A 0.50005 0.50005 0 0 0 2 4 L 2 6.5 A 0.50005 0.50005 0 0 0 2.5 7 L 4 7 L 4 13.5 A 0.50005 0.50005 0 0 0 4.5 14 L 11.5 14 A 0.50005 0.50005 0 0 0 12 13.5 L 12 7 L 13.5 7 A 0.50005 0.50005 0 0 0 14 6.5 L 14 4 A 0.50005 0.50005 0 0 0 13.675781 3.53125 L 9.6757812 2.03125 A 0.50005 0.50005 0 0 0 9.5 2 L 6.5 2 z M 7.0019531 3 L 8.9980469 3 C 8.9964864 3.0235035 8.9783527 3.2718204 8.8496094 3.5214844 C 8.7146847 3.7831329 8.5544422 4 8 4 C 7.4455578 4 7.2853153 3.7831354 7.1503906 3.5214844 C 7.0216472 3.2718204 7.0035135 3.0235035 7.0019531 3 z M 6.0234375 3.2128906 C 6.0441731 3.389135 6.0910702 3.6513755 6.2597656 3.9785156 C 6.5115909 4.4668671 7.1014422 5 8 5 C 8.8985578 5 9.4884091 4.4668646 9.7402344 3.9785156 C 9.9089296 3.6513755 9.9558268 3.389135 9.9765625 3.2128906 L 13 4.3476562 L 13 6 L 11.5 6 A 0.50005 0.50005 0 0 0 11 6.5 L 11 13 L 5 13 L 5 6.5 A 0.50005 0.50005 0 0 0 4.5 6 L 3 6 L 3 4.3457031 L 6.0234375 3.2128906 z" fill="#ffffff"/></svg>

<?xml version="1.0" encoding="utf-8"?>
<!-- Generator: Adobe Illustrator 25.2.3, SVG Export Plug-In . SVG Version: 6.00 Build 0)  -->
<svg version="1.1" id="Layer_1" xmlns="http://www.w3.org/2000/svg" xmlns:xlink="http://www.w3.org/1999/xlink" x="0px" y="0px"
	 viewBox="0 0 16 16" style="enable-background:new 0 0 16 16;" xml:space="preserve">
<style type="text/css">
	.st0{fill:#111111;}
</style>
<path class="st0" d="M6.5,2C6.4,2,6.4,2,6.3,2l-4,1.5C2.1,3.6,2,3.8,2,4v2.5C2,6.8,2.2,7,2.5,7H4v6.5C4,13.8,4.2,14,4.5,14h7
	c0.3,0,0.5-0.2,0.5-0.5V7h1.5C13.8,7,14,6.8,14,6.5V4c0-0.2-0.1-0.4-0.3-0.5L9.7,2C9.6,2,9.6,2,9.5,2H6.5z M7,3h2c0,0,0,0.3-0.1,0.5
	C8.7,3.8,8.6,4,8,4S7.3,3.8,7.2,3.5C7,3.3,7,3,7,3z M6,3.2C6,3.4,6.1,3.7,6.3,4C6.5,4.5,7.1,5,8,5s1.5-0.5,1.7-1
	C9.9,3.7,10,3.4,10,3.2l3,1.1V6h-1.5C11.2,6,11,6.2,11,6.5V13H5V6.5C5,6.2,4.8,6,4.5,6H3V4.3L6,3.2z"/>
</svg>
